P3
41 41
255
    0   0   0    0   0   0    0   0   0    0   0   0    0   0   0    0   0   0    0   0   0    0   0   0    0   0   0    0   0   0    0   0   0    0   0   0    0   0   0    0   0   0    0   0   0    0   0   0    0   0   0    0   0   0    0   0   0    0   0   0    0   0   0    0   0   0    0   0   0    0   0   0    0   0   0    0   0   0    0   0   0    0   0   0    0   0   0    0   0   0    0   0   0    0   0   0    0   0   0    0   0   0    0   0   0    0   0   0    0   0   0    0   0   0    0   0   0    0   0   0    0   0   0
    0  29 215    0  29 215    0  29 215    0  29 215    0  29 215    0  29 215    0  29 215    0  29 215    0  29 215    0  29 215    0  29 215    0  29 215    0  29 215    0  29 215    0  29 215    0  29 215    0   0   0    0  29 215    0  29 215    0  29 215    0  29 215    0  29 215    0  29 215    0  29 215    0   0   0    0  29 215    0   0   0    0  59 174    0  59 174    0  59 174    0   0   0    0  59 174    0  59 174    0  59 174    0   0   0    0  59 174    0  59 174    0  59 174    0  59 174    0  59 174    0   0   0
    0   0   0    0   0   0    0   0   0    0   0   0    0   0   0    0  29 215    0   0   0    0   0   0    0   0   0    0   0   0    0   0   0    0   0   0    0   0   0    0   0   0    0   0   0    0   0   0    0   0   0    0  29 215    0   0   0    0   0   0    0   0   0    0  29 215    0   0   0    0  29 215    0   0   0    0  29 215    0   0   0    0  59 174    0   0   0    0  59 174    0   0   0    0  59 174    0   0   0    0  59 174    0   0   0    0   0   0    0   0   0    0   0   0    0   0   0    0  59 174    0   0   0
    0   0   0    0  29 215    0  29 215    0  29 215    0  29 215    0  29 215    0   0   0    0  29 215    0  29 215    0  29 215    0  29 215    0  29 215    0  29 215    0  29 215    0  29 215    0  29 215    0  29 215    0  29 215    0   0   0    0  29 215    0   0   0    0  29 215    0   0   0    0  29 215    0   0   0    0  29 215    0   0   0    0  59 174    0   0   0    0  59 174    0  59 174    0  59 174    0   0   0    0  59 174    0  59 174    0  59 174    0  59 174    0  59 174    0  59 174    0  59 174    0   0   0
    0   0   0    0  29 215    0   0   0    0   0   0    0   0   0    0   0   0    0   0   0    0  29 215    0   0   0    0   0   0    0   0   0    0   0   0    0   0   0    0   0   0    0   0   0    0   0   0    0   0   0    0   0   0    0   0   0    0  29 215    0   0   0    0  29 215    0   0   0    0   0   0    0   0   0    0  29 215    0   0   0    0  59 174    0   0   0    0   0   0    0   0   0    0   0   0    0   0   0    0   0   0    0   0   0    0   0   0    0   0   0    0   0   0    0   0   0    0   0   0    0   0   0
    0   0   0    0  29 215    0   0   0    0  29 215    0  29 215    0  29 215    0  29 215    0  29 215    0   0   0    0  29 215    0  29 215    0  29 215    0   0   0    0  29 215    0  29 215    0  29 215    0  29 215    0  29 215    0  29 215    0  29 215    0   0   0    0  29 215    0  29 215    0  29 215    0  29 215    0  29 215    0   0   0    0  59 174    0  59 174    0  59 174    0  59 174    0  59 174    0  59 174    0  59 174    0   0   0    0  59 174    0  59 174    0  59 174    0  59 174    0  59 174    0   0   0
    0   0   0    0  29 215    0   0   0    0  29 215    0   0   0    0   0   0    0   0   0    0   0   0    0   0   0    0  29 215    0   0   0    0   0   0    0   0   0    0  29 215    0   0   0    0   0   0    0   0   0    0  29 215    0   0   0    0  29 215    0   0   0    0   0   0    0   0   0    0   0   0    0   0   0    0   0   0    0   0   0    0   0   0    0   0   0    0   0   0    0   0   0    0  59 174    0  59 174    0  59 174    0   0   0    0  59 174    0  59 174    0  59 174    0  59 174    0  59 174    0   0   0
    0   0   0    0  29 215    0  29 215    0  29 215    0   0   0    0  29 215    0  29 215    0  29 215    0   0   0    0  29 215    0  29 215    0  29 215    0   0   0    0  29 215    0   0   0    0  29 215    0  29 215    0  29 215    0   0   0    0  29 215    0   0   0    0  59 174    0  59 174    0  59 174    0  59 174    0  59 174    0  59 174    0  59 174    0  59 174    0  59 174    0   0   0    0  59 174    0   0   0    0  59 174    0  59 174    0  59 174    0  59 174    0   0   0    0  59 174    0  59 174    0   0   0
    0   0   0    0  29 215    0   0   0    0   0   0    0   0   0    0  29 215    0  29 215    0  29 215    0   0   0    0   0   0    0   0   0    0  29 215    0   0   0    0  29 215    0   0   0    0  29 215    0   0   0    0   0   0    0   0   0    0   0   0    0   0   0    0  59 174    0   0   0    0   0   0    0   0   0    0   0   0    0   0   0    0   0   0    0   0   0    0  59 174    0   0   0    0  59 174    0  59 174    0  59 174    0   0   0    0  59 174    0  59 174    0  59 174    0  59 174    0  59 174    0   0   0
    0   0   0    0  29 215    0   0   0    0  29 215    0  29 215    0  29 215    0  29 215    0  29 215    0  29 215    0  29 215    0   0   0    0  29 215    0  29 215    0  29 215    0   0   0    0  29 215    0   0   0    0  59 174    0  59 174    0  59 174    0  59 174    0  59 174    0   0   0    0  89 133    0  89 133    0  89 133    0   0   0    0  59 174    0  59 174    0  59 174    0   0   0    0  59 174    0  59 174    0  59 174    0   0   0    0  59 174    0  59 174    0  59 174    0  59 174    0  59 174    0   0   0
    0   0   0    0  29 215    0   0   0    0  29 215    0  29 215    0  29 215    0  29 215    0  29 215    0   0   0    0  29 215    0   0   0    0   0   0    0   0   0    0   0   0    0   0   0    0  29 215    0   0   0    0  59 174    0   0   0    0   0   0    0   0   0    0   0   0    0   0   0    0  89 133    0   0   0    0   0   0    0   0   0    0  59 174    0   0   0    0   0   0    0   0   0    0   0   0    0   0   0    0   0   0    0   0   0    0  59 174    0   0   0    0   0   0    0   0   0    0  59 174    0   0   0
    0   0   0    0  29 215    0   0   0    0  29 215    0  29 215    0  29 215    0  29 215    0  29 215    0  29 215    0  29 215    0  29 215    0  29 215    0  29 215    0  29 215    0  29 215    0  29 215    0   0   0    0  59 174    0  59 174    0  59 174    0   0   0    0  89 133    0  89 133    0  89 133    0   0   0    0  59 174    0  59 174    0  59 174    0   0   0    0  59 174    0  59 174    0  59 174    0  59 174    0  59 174    0  59 174    0  59 174    0   0   0    0  59 174    0   0   0    0  59 174    0   0   0
    0   0   0    0  29 215    0   0   0    0  29 215    0  29 215    0  29 215    0  29 215    0  29 215    0   0   0    0   0   0    0   0   0    0   0   0    0   0   0    0   0   0    0   0   0    0   0   0    0   0   0    0   0   0    0   0   0    0  59 174    0   0   0    0  89 133    0   0   0    0  89 133    0   0   0    0  59 174    0   0   0    0   0   0    0   0   0    0   0   0    0   0   0    0  59 174    0   0   0    0   0   0    0   0   0    0   0   0    0   0   0    0  59 174    0   0   0    0  59 174    0   0   0
    0   0   0    0  29 215    0   0   0    0  29 215    0  29 215    0  29 215    0  29 215    0  29 215    0   0   0    0 119  92    0 119  92    0 119  92    0 119  92    0 119  92    0   0   0    0 119  92    0 119  92    0 119  92    0   0   0    0  59 174    0   0   0    0  89 133    0   0   0    0  89 133    0   0   0    0  59 174    0   0   0    0  59 174    0  59 174    0  59 174    0  59 174    0  59 174    0   0   0    0  59 174    0  59 174    0  59 174    0   0   0    0  59 174    0  59 174    0  59 174    0   0   0
    0   0   0    0  29 215    0   0   0    0  29 215    0  29 215    0  29 215    0  29 215    0  29 215    0   0   0    0 119  92    0   0   0    0   0   0    0   0   0    0 119  92    0   0   0    0 119  92    0   0   0    0 119  92    0   0   0    0  59 174    0   0   0    0  89 133    0   0   0    0  89 133    0   0   0    0  59 174    0   0   0    0  59 174    0   0   0    0   0   0    0   0   0    0   0   0    0   0   0    0  59 174    0   0   0    0  59 174    0   0   0    0  59 174    0   0   0    0   0   0    0   0   0
    0   0   0    0  29 215    0   0   0    0  29 215    0  29 215    0  29 215    0  29 215    0  29 215    0   0   0    0 119  92    0 119  92    0 119  92    0   0   0    0 119  92    0 119  92    0 119  92    0   0   0    0 119  92    0   0   0    0  59 174    0   0   0    0  89 133    0   0   0    0  89 133    0   0   0    0  59 174    0  59 174    0  59 174    0   0   0    0  59 174    0  59 174    0  59 174    0  59 174    0  59 174    0   0   0    0  59 174    0   0   0    0  59 174    0  59 174    0  59 174    0   0   0
    0   0   0    0  29 215    0   0   0    0   0   0    0   0   0    0  29 215    0  29 215    0  29 215    0   0   0    0   0   0    0   0   0    0 119  92    0   0   0    0   0   0    0   0   0    0   0   0    0   0   0    0 119  92    0   0   0    0  59 174    0   0   0    0  89 133    0   0   0    0  89 133    0   0   0    0   0   0    0   0   0    0  59 174    0   0   0    0   0   0    0   0   0    0   0   0    0   0   0    0  59 174    0   0   0    0   0   0    0   0   0    0   0   0    0   0   0    0  59 174    0   0   0
    0   0   0    0  29 215    0  29 215    0  29 215    0   0   0    0  29 215    0  29 215    0  29 215    0  29 215    0  29 215    0   0   0    0 119  92    0   0   0    0  89 133    0  89 133    0  89 133    0   0   0    0 119  92    0   0   0    0  59 174    0   0   0    0  89 133    0   0   0    0  89 133    0  89 133    0  89 133    0   0   0    0  59 174    0   0   0    0 119  92    0 119  92    0 119  92    0   0   0    0  59 174    0  59 174    0  59 174    0  59 174    0  59 174    0  59 174    0  59 174    0   0   0
    0   0   0    0   0   0    0   0   0    0  29 215    0   0   0    0   0   0    0   0   0    0  29 215    0   0   0    0   0   0    0   0   0    0 119  92    0   0   0    0  89 133    0   0   0    0   0   0    0   0   0    0   0   0    0   0   0    0   0   0    0   0   0    0   0   0    0   0   0    0  89 133    0   0   0    0   0   0    0   0   0    0  59 174    0   0   0    0 119  92    0   0   0    0 119  92    0   0   0    0   0   0    0   0   0    0   0   0    0   0   0    0  59 174    0   0   0    0   0   0    0   0   0
    0   0   0    0  29 215    0   0   0    0  29 215    0  29 215    0  29 215    0   0   0    0  29 215    0   0   0    0 119  92    0 119  92    0 119  92    0   0   0    0  89 133    0   0   0    0  89 133    0  89 133    0  89 133    0  89 133    0  89 133    0  89 133    0  89 133    0   0   0    0  89 133    0   0   0    0  59 174    0  59 174    0  59 174    0   0   0    0 119  92    0   0   0    0 119  92    0 119  92    0 119  92    0 119  92    0 119  92    0   0   0    0  59 174    0  59 174    0  59 174    0   0   0
    0   0   0    0  29 215    0   0   0    0   0   0    0   0   0    0  29 215    0   0   0    0  29 215    0   0   0    0 119  92    0   0   0    0   0   0    0   0   0    0  89 133    0   0   0    0  89 133    0   0   0    0  89 133    0  89 133    0  89 133    0  89 133    0  89 133    0   0   0    0  89 133    0   0   0    0  59 174    0   0   0    0   0   0    0   0   0    0 119  92    0   0   0    0   0   0    0   0   0    0   0   0    0   0   0    0 119  92    0   0   0    0   0   0    0   0   0    0   0   0    0   0   0
    0   0   0    0  29 215    0  29 215    0  29 215    0   0   0    0  29 215    0  29 215    0  29 215    0   0   0    0 119  92    0   0   0    0  89 133    0  89 133    0  89 133    0   0   0    0  89 133    0   0   0    0  89 133    0  89 133    0  89 133    0  89 133    0  89 133    0   0   0    0  89 133    0   0   0    0  59 174    0   0   0    0  59 174    0   0   0    0 119  92    0   0   0    0 119  92    0 119  92    0 119  92    0 119  92    0 119  92    0 119  92    0 119  92    0 119  92    0 119  92    0   0   0
    0   0   0    0   0   0    0   0   0    0  29 215    0   0   0    0   0   0    0   0   0    0  29 215    0   0   0    0 119  92    0   0   0    0  89 133    0   0   0    0   0   0    0   0   0    0  89 133    0   0   0    0  89 133    0   0   0    0   0   0    0   0   0    0  89 133    0   0   0    0  89 133    0   0   0    0  59 174    0   0   0    0  59 174    0   0   0    0 119  92    0   0   0    0   0   0    0   0   0    0   0   0    0   0   0    0   0   0    0   0   0    0   0   0    0   0   0    0 119  92    0   0   0
    0   0   0    0  29 215    0  29 215    0  29 215    0   0   0    0  29 215    0   0   0    0  29 215    0   0   0    0 119  92    0   0   0    0  89 133    0  89 133    0  89 133    0  89 133    0  89 133    0   0   0    0  89 133    0   0   0    0  89 133    0  89 133    0  89 133    0  89 133    0  89 133    0   0   0    0  59 174    0  59 174    0  59 174    0   0   0    0 119  92    0 119  92    0 119  92    0 119  92    0 119  92    0 119  92    0 119  92    0 119  92    0 119  92    0   0   0    0 119  92    0   0   0
    0   0   0    0  29 215    0   0   0    0  29 215    0   0   0    0  29 215    0   0   0    0  29 215    0   0   0    0 119  92    0   0   0    0   0   0    0   0   0    0   0   0    0   0   0    0   0   0    0   0   0    0  89 133    0   0   0    0   0   0    0   0   0    0   0   0    0   0   0    0   0   0    0   0   0    0  59 174    0   0   0    0   0   0    0   0   0    0   0   0    0   0   0    0 119  92    0   0   0    0   0   0    0   0   0    0   0   0    0   0   0    0 119  92    0   0   0    0 119  92    0   0   0
    0   0   0    0  29 215    0   0   0    0  29 215    0  29 215    0  29 215    0   0   0    0  29 215    0   0   0    0 119  92    0 119  92    0 119  92    0 119  92    0 119  92    0 119  92    0 119  92    0   0   0    0  89 133    0  89 133    0  89 133    0   0   0    0  59 174    0  59 174    0  59 174    0  59 174    0  59 174    0   0   0    0 119  92    0 119  92    0 119  92    0   0   0    0 119  92    0 119  92    0 119  92    0   0   0    0 119  92    0 119  92    0 119  92    0   0   0    0 119  92    0   0   0
    0   0   0    0  29 215    0   0   0    0   0   0    0   0   0    0   0   0    0   0   0    0  29 215    0   0   0    0   0   0    0   0   0    0   0   0    0   0   0    0   0   0    0   0   0    0 119  92    0   0   0    0  89 133    0   0   0    0  89 133    0   0   0    0  59 174    0   0   0    0   0   0    0   0   0    0   0   0    0   0   0    0 119  92    0   0   0    0 119  92    0   0   0    0   0   0    0   0   0    0   0   0    0   0   0    0 119  92    0   0   0    0   0   0    0   0   0    0 119  92    0   0   0
    0   0   0    0  29 215    0   0   0    0  29 215    0  29 215    0  29 215    0   0   0    0  29 215    0   0   0    0  29 215    0  29 215    0  29 215    0  29 215    0  29 215    0   0   0    0 119  92    0   0   0    0  89 133    0   0   0    0  89 133    0   0   0    0  59 174    0   0   0    0  89 133    0  89 133    0  89 133    0   0   0    0 119  92    0   0   0    0 119  92    0 119  92    0 119  92    0 119  92    0 119  92    0 119  92    0 119  92    0   0   0    0 119  92    0   0   0    0 119  92    0   0   0
    0   0   0    0  29 215    0   0   0    0  29 215    0   0   0    0  29 215    0   0   0    0  29 215    0   0   0    0   0   0    0   0   0    0   0   0    0   0   0    0  29 215    0   0   0    0 119  92    0   0   0    0  89 133    0   0   0    0   0   0    0   0   0    0   0   0    0   0   0    0  89 133    0   0   0    0  89 133    0   0   0    0 119  92    0   0   0    0   0   0    0   0   0    0   0   0    0   0   0    0   0   0    0   0   0    0   0   0    0   0   0    0 119  92    0   0   0    0 119  92    0   0   0
    0   0   0    0  29 215    0  29 215    0  29 215    0   0   0    0  29 215    0   0   0    0  29 215    0  29 215    0  29 215    0  29 215    0  29 215    0  29 215    0  29 215    0   0   0    0 119  92    0   0   0    0  89 133    0  89 133    0  89 133    0  89 133    0  89 133    0  89 133    0  89 133    0   0   0    0  89 133    0   0   0    0 119  92    0   0   0    0 149  51    0 149  51    0 149  51    0 149  51    0 149  51    0   0   0    0 119  92    0 119  92    0 119  92    0   0   0    0 119  92    0   0   0
    0   0   0    0  29 215    0   0   0    0   0   0    0   0   0    0  29 215    0   0   0    0  29 215    0   0   0    0   0   0    0   0   0    0   0   0    0   0   0    0   0   0    0   0   0    0 119  92    0   0   0    0   0   0    0   0   0    0   0   0    0   0   0    0   0   0    0   0   0    0  89 133    0  89 133    0   0   0    0   0   0    0 119  92    0   0   0    0 149  51    0   0   0    0   0   0    0 149  51    0 149  51    0   0   0    0 119  92    0   0   0    0 119  92    0   0   0    0 119  92    0   0   0
    0   0   0    0  29 215    0  29 215    0  29 215    0   0   0    0  29 215    0  29 215    0  29 215    0   0   0    0 119  92    0 119  92    0 119  92    0 119  92    0 119  92    0   0   0    0 119  92    0   0   0    0 119  92    0 119  92    0 119  92    0 119  92    0 119  92    0   0   0    0  89 133    0   0   0    0 149  51    0   0   0    0 119  92    0   0   0    0 149  51    0 149  51    0 149  51    0   0   0    0 149  51    0   0   0    0 119  92    0   0   0    0 119  92    0   0   0    0 119  92    0   0   0
    0   0   0    0  29 215    0   0   0    0   0   0    0   0   0    0   0   0    0   0   0    0   0   0    0   0   0    0 119  92    0   0   0    0   0   0    0   0   0    0 119  92    0   0   0    0 119  92    0   0   0    0 119  92    0   0   0    0   0   0    0   0   0    0 119  92    0   0   0    0  89 133    0   0   0    0 149  51    0   0   0    0 119  92    0   0   0    0 149  51    0 149  51    0   0   0    0 149  51    0 149  51    0   0   0    0 119  92    0   0   0    0 119  92    0   0   0    0 119  92    0   0   0
    0   0   0    0  29 215    0   0   0    0 119  92    0 119  92    0 119  92    0 119  92    0 119  92    0 119  92    0 119  92    0   0   0    0 119  92    0 119  92    0 119  92    0 119  92    0 119  92    0   0   0    0 119  92    0   0   0    0 119  92    0   0   0    0 119  92    0   0   0    0  89 133    0   0   0    0 149  51    0   0   0    0 119  92    0   0   0    0 149  51    0   0   0    0 149  51    0 149  51    0 149  51    0   0   0    0 119  92    0   0   0    0 119  92    0 119  92    0 119  92    0   0   0
    0   0   0    0  29 215    0   0   0    0 119  92    0 119  92    0 119  92    0 119  92    0 119  92    0 119  92    0   0   0    0   0   0    0   0   0    0   0   0    0   0   0    0   0   0    0 119  92    0   0   0    0 119  92    0   0   0    0 119  92    0   0   0    0 119  92    0   0   0    0   0   0    0   0   0    0 149  51    0 149  51    0   0   0    0 149  51    0 149  51    0   0   0    0 149  51    0   0   0    0   0   0    0 149  51    0   0   0    0   0   0    0 119  92    0   0   0    0   0   0    0   0   0
    0   0   0    0  29 215    0   0   0    0 119  92    0   0   0    0 119  92    0 119  92    0 119  92    0 119  92    0 119  92    0 119  92    0 119  92    0   0   0    0 119  92    0   0   0    0 119  92    0   0   0    0 119  92    0   0   0    0 119  92    0   0   0    0 119  92    0 119  92    0 119  92    0   0   0    0 149  51    0 149  51    0 149  51    0 149  51    0 149  51    0   0   0    0 149  51    0 149  51    0 149  51    0 149  51    0 149  51    0   0   0    0 119  92    0 119  92    0 119  92    0   0   0
    0   0   0    0   0   0    0   0   0    0 119  92    0 119  92    0 119  92    0   0   0    0 119  92    0 119  92    0 119  92    0   0   0    0 119  92    0   0   0    0 119  92    0   0   0    0 119  92    0   0   0    0 119  92    0   0   0    0 119  92    0   0   0    0   0   0    0   0   0    0 119  92    0   0   0    0   0   0    0   0   0    0   0   0    0   0   0    0   0   0    0   0   0    0   0   0    0   0   0    0   0   0    0 149  51    0 149  51    0 149  51    0   0   0    0   0   0    0 119  92    0   0   0
    0   0   0    0 119  92    0 119  92    0 119  92    0 119  92    0 119  92    0 119  92    0 119  92    0 119  92    0 119  92    0   0   0    0 119  92    0   0   0    0 119  92    0 119  92    0 119  92    0   0   0    0 119  92    0 119  92    0 119  92    0 119  92    0 119  92    0   0   0    0 119  92    0 119  92    0 119  92    0 119  92    0 119  92    0 119  92    0 119  92    0 119  92    0 119  92    0 119  92    0 119  92    0   0   0    0 149  51    0 149  51    0 149  51    0   0   0    0 119  92    0   0   0
    0   0   0    0 119  92    0   0   0    0 119  92    0   0   0    0 119  92    0   0   0    0 119  92    0   0   0    0 119  92    0   0   0    0 119  92    0   0   0    0   0   0    0   0   0    0   0   0    0   0   0    0   0   0    0   0   0    0   0   0    0   0   0    0 119  92    0   0   0    0   0   0    0   0   0    0   0   0    0   0   0    0   0   0    0   0   0    0   0   0    0   0   0    0 119  92    0   0   0    0   0   0    0   0   0    0   0   0    0   0   0    0   0   0    0   0   0    0 119  92    0   0   0
    0   0   0    0 119  92    0 119  92    0 119  92    0 119  92    0 119  92    0 119  92    0 119  92    0   0   0    0 119  92    0   0   0    0 119  92    0 119  92    0 119  92    0 119  92    0 119  92    0 119  92    0 119  92    0 119  92    0 119  92    0 119  92    0 119  92    0 119  92    0 119  92    0 119  92    0 119  92    0 119  92    0 119  92    0 119  92    0 119  92    0   0   0    0 119  92    0 119  92    0 119  92    0 119  92    0 119  92    0 119  92    0 119  92    0 119  92    0 119  92    0 119  92
    0   0   0    0   0   0    0   0   0    0   0   0    0   0   0    0   0   0    0   0   0    0   0   0    0   0   0    0   0   0    0   0   0    0   0   0    0   0   0    0   0   0    0   0   0    0   0   0    0   0   0    0   0   0    0   0   0    0   0   0    0   0   0    0   0   0    0   0   0    0   0   0    0   0   0    0   0   0    0   0   0    0   0   0    0   0   0    0   0   0    0   0   0    0   0   0    0   0   0    0   0   0    0   0   0    0   0   0    0   0   0    0   0   0    0   0   0    0   0   0    0   0   0
