P3
6 24
255
  255 255 255  255 255 255  255 255 255  255 255 255  255 255 255  255 255 255
  255 255 255    0   0   0  255 255 255    0   0   0  255 255 255  255 255 255
  255 255 255  255 255 255    0   0   0  255 255 255    0   0   0  255 255 255
  255 255 255  255 255 255  255 255 255  255 255 255  255 255 255  255 255 255
  255 255 255  255 255 255  255   0   0  255   0   0  255 255 255  255 255 255
  255 255 255  255   0   0  255 255 255  255 255 255  255   0   0  255 255 255
  255 255 255  255   0   0  255   0   0  255   0   0  255   0   0  255 255 255
  255 255 255  255   0   0  255 255 255  255 255 255  255   0   0  255 255 255
  255 255 255  255   0   0  255 255 255  255 255 255  255   0   0  255 255 255
  255 255 255  255 255 255  255 255 255  255 255 255  255 255 255  255 255 255
  255 255 255  255 255 255  255 255 255  255 255 255  255 255 255  255 255 255
  255 255 255    0 255   0    0 255   0    0 255   0    0 255   0  255 255 255
  255 255 255    0 255   0  255 255 255  255 255 255  255 255 255  255 255 255
  255 255 255    0 255   0    0 255   0    0 255   0  255 255 255  255 255 255
  255 255 255    0 255   0  255 255 255  255 255 255  255 255 255  255 255 255
  255 255 255    0 255   0    0 255   0    0 255   0    0 255   0  255 255 255
  255 255 255  255 255 255  255 255 255  255 255 255  255 255 255  255 255 255
  255 255 255  255 255 255  255 255 255  255 255 255  255 255 255  255 255 255
  255 255 255    0   0 255    0   0 255    0   0 255  255 255 255  255 255 255
  255 255 255    0   0 255  255 255 255  255 255 255    0   0 255  255 255 255
  255 255 255    0   0 255  255 255 255  255 255 255    0   0 255  255 255 255
  255 255 255    0   0 255  255 255 255  255 255 255    0   0 255  255 255 255
  255 255 255    0   0 255    0   0 255    0   0 255  255 255 255  255 255 255
  255 255 255  255 255 255  255 255 255  255 255 255  255 255 255  255 255 255
