P3
# ooo.ppm
20 14
255
255 255 255  255 255 255  255 255 255  255 255 255  255 255 255  255 255 255  255 255 255  255 255 255  255 255 255  255 255 255  255 255 255  255 255 255  255 255 255  255 255 255  255 255 255  255 255 255  255 255 255  255 255 255  255 255 255  255 255 255  
255 255 255  255 255 255  255 255 255    0   0   0    0   0   0  255 255 255  255 255 255  255 255 255  255 255 255    0   0   0    0   0   0  255 255 255  255 255 255  255 255 255  255 255 255    0   0   0    0   0   0  255 255 255  255 255 255  255 255 255  
255 255 255  255 255 255    0   0   0  255 255 255  255 255 255    0   0   0  255 255 255  255 255 255    0   0   0  255 255 255  255 255 255    0   0   0  255 255 255  255 255 255    0   0   0  255 255 255  255 255 255    0   0   0  255 255 255  255 255 255  
255 255 255  255 255 255    0   0   0  255 255 255  255 255 255    0   0   0  255 255 255  255 255 255    0   0   0  255 255 255  255 255 255    0   0   0  255 255 255  255 255 255    0   0   0  255 255 255  255 255 255    0   0   0  255 255 255  255 255 255  
255 255 255  255 255 255    0   0   0  255 255 255  255 255 255    0   0   0  255 255 255  255 255 255    0   0   0  255 255 255  255 255 255    0   0   0  255 255 255  255 255 255    0   0   0  255 255 255  255 255 255    0   0   0  255 255 255  255 255 255  
255 255 255  255 255 255    0   0   0  255 255 255  255 255 255    0   0   0  255 255 255  255 255 255    0   0   0  255 255 255  255 255 255    0   0   0  255 255 255  255 255 255    0   0   0  255 255 255  255 255 255    0   0   0  255 255 255  255 255 255  
255 255 255  255 255 255    0   0   0  255 255 255  255 255 255    0   0   0  255 255 255  255 255 255    0   0   0  255 255 255  255 255 255    0   0   0  255 255 255  255 255 255    0   0   0  255 255 255  255 255 255    0   0   0  255 255 255  255 255 255  
255 255 255  255 255 255    0   0   0  255 255 255  255 255 255    0   0   0  255 255 255  255 255 255    0   0   0  255 255 255  255 255 255    0   0   0  255 255 255  255 255 255    0   0   0  255 255 255  255 255 255    0   0   0  255 255 255  255 255 255  
255 255 255  255 255 255    0   0   0  255 255 255  255 255 255    0   0   0  255 255 255  255 255 255    0   0   0  255 255 255  255 255 255    0   0   0  255 255 255  255 255 255    0   0   0  255 255 255  255 255 255    0   0   0  255 255 255  255 255 255  
255 255 255  255 255 255    0   0   0  255 255 255  255 255 255    0   0   0  255 255 255  255 255 255    0   0   0  255 255 255  255 255 255    0   0   0  255 255 255  255 255 255    0   0   0  255 255 255  255 255 255    0   0   0  255 255 255  255 255 255  
255 255 255  255 255 255    0   0   0  255 255 255  255 255 255    0   0   0  255 255 255  255 255 255    0   0   0  255 255 255  255 255 255    0   0   0  255 255 255  255 255 255    0   0   0  255 255 255  255 255 255    0   0   0  255 255 255  255 255 255  
255 255 255  255 255 255    0   0   0  255 255 255  255 255 255    0   0   0  255 255 255  255 255 255    0   0   0  255 255 255  255 255 255    0   0   0  255 255 255  255 255 255    0   0   0  255 255 255  255 255 255    0   0   0  255 255 255  255 255 255  
255 255 255  255 255 255  255 255 255    0   0   0    0   0   0  255 255 255  255 255 255  255 255 255  255 255 255    0   0   0    0   0   0  255 255 255  255 255 255  255 255 255  255 255 255    0   0   0    0   0   0  255 255 255  255 255 255  255 255 255  
255 255 255  255 255 255  255 255 255  255 255 255  255 255 255  255 255 255  255 255 255  255 255 255  255 255 255  255 255 255  255 255 255  255 255 255  255 255 255  255 255 255  255 255 255  255 255 255  255 255 255  255 255 255  255 255 255  255 255 255  
